icons/icon-info.svg

<svg viewBox="0 0 16 16" fill="none" xmlns="http://www.w3.org/2000/svg">
<path d="M8 16C10.1217 16 12.1566 15.1571 13.6569 13.6569C15.1571 12.1566 16 10.1217 16 8C16 5.87827 15.1571 3.84344 13.6569 2.34315C12.1566 0.842855 10.1217 0 8 0C5.87827 0 3.84344 0.842855 2.34315 2.34315C0.842855 3.84344 0 5.87827 0 8C0 10.1217 0.842855 12.1566 2.34315 13.6569C3.84344 15.1571 5.87827 16 8 16V16ZM8.93 6.588L7.93 11.293C7.86 11.633 7.959 11.826 8.234 11.826C8.428 11.826 8.721 11.756 8.92 11.58L8.832 11.996C8.545 12.342 7.912 12.594 7.367 12.594C6.664 12.594 6.365 12.172 6.559 11.275L7.297 7.807C7.361 7.514 7.303 7.408 7.01 7.337L6.559 7.256L6.641 6.875L8.931 6.588H8.93ZM8 5.5C7.73478 5.5 7.48043 5.39464 7.29289 5.20711C7.10536 5.01957 7 4.76522 7 4.5C7 4.23478 7.10536 3.98043 7.29289 3.79289C7.48043 3.60536 7.73478 3.5 8 3.5C8.26522 3.5 8.51957 3.60536 8.70711 3.79289C8.89464 3.98043 9 4.23478 9 4.5C9 4.76522 8.89464 5.01957 8.70711 5.20711C8.51957 5.39464 8.26522 5.5 8 5.5V5.5Z" fill="currentColor"/>
</svg>

<svg viewBox="0 0 16 16" fill="none" xmlns="http://www.w3.org/2000/svg"><path d="M8 16A8 8 0 108-.001 8 8 0 008 16zm.93-9.412l-1 4.705c-.07.34.029.533.304.533.194 0 .487-.07.686-.246l-.088.416c-.287.346-.92.598-1.465.598-.703 0-1.002-.422-.808-1.319l.738-3.468c.064-.293.006-.399-.287-.47l-.451-.081.082-.381 2.29-.287H8.93zM8 5.5a1 1 0 110-2 1 1 0 010 2z" fill="currentColor"/></svg>
